icons/bitnami.svg

<svg xmlns="http://www.w3.org/2000/svg" viewBox="0 0 256 286.851">
  <defs>
    <linearGradient id="a" x1="81.211" x2="263.243" y1="165.406" y2="165.406" gradientTransform="scale(1.31337 .7614)" gradientUnits="userSpaceOnUse">
      <stop offset="0%" stop-color="#FFF" stop-opacity="0"/>
      <stop offset="100%" stop-color="#FFF"/>
    </linearGradient>
    <linearGradient id="b" x1="170.476" x2="318.85" y1="128.528" y2="19.13" gradientTransform="scale(.76009 1.31564)" gradientUnits="userSpaceOnUse">
      <stop offset="0%" stop-color="#FFF" stop-opacity="0"/>
      <stop offset="100%" stop-color="#FFF"/>
    </linearGradient>
    <linearGradient id="c" x1="153.62" x2="-15.337" y1="113.124" y2="192.204" gradientTransform="scale(.76009 1.31564)" gradientUnits="userSpaceOnUse">
      <stop offset="0%" stop-color="#FFF" stop-opacity="0"/>
      <stop offset="100%" stop-color="#FFF"/>
    </linearGradient>
    <linearGradient id="d" x1="92.303" x2="516.591" y1="25.971" y2="590.937" gradientTransform="scale(1.24591 .80262)" gradientUnits="userSpaceOnUse">
      <stop offset="0%" stop-color="#FFF" stop-opacity="0"/>
      <stop offset="100%" stop-color="#FFF"/>
    </linearGradient>
    <linearGradient id="e" x1="52.741" x2="46.201" y1="22.997" y2="126.079" gradientTransform="scale(.54153 1.84663)" gradientUnits="userSpaceOnUse">
      <stop offset="0%" stop-color="#1A3B54" stop-opacity="0"/>
      <stop offset="100%" stop-color="#1A3B54"/>
    </linearGradient>
  </defs>
  <path fill="#2a5d84" d="m142.4 3.9 99.3 57.3C251 66.6 256 75.5 256 86.9v114c0 10.8-4.9 19.2-14.1 24.6-33 19.1-66.1 38.1-99.1 57.2-9.6 5.6-20 5.5-29.7-.1-32.9-19-65.9-38-98.8-57.1C6.4 221 0 211.9 0 200.4V81.8c0-10.4 4.9-15.7 14.1-21L53.7 38v148.3l74.3 42.9 74.3-42.9v-85.8L128 57.6l-31.2 18v-62c5.6-3.2 11.2-6.5 16.9-9.7 8.7-5.1 19.5-5.3 28.7 0z"/>
  <path fill="#1a3b54" d="M159.2 125.2v36l-15.6 9-15.6 9.1-15.6-9.1-15.6-9v-36l15.6-9 15.6-9 15.6 9z"/>
  <path fill="url(#a)" d="M158.1 125.9 128 108.5l-30.1 17.4 30.1 17.5z" style="fill:url(#a)"/>
  <path fill="url(#b)" d="m128 178 30.1-17.4v-34.7L128 143.2z" style="fill:url(#b)"/>
  <path fill="url(#c)" d="m128 178-30.1-17.4v-34.7l30.1 17.3z" style="fill:url(#c)"/>
  <path fill="url(#d)" d="M97.9 14.3v59.4L128 56.3l75.4 43.5v.3l48.1-27.6c-2.3-4.2-5.7-7.7-10.4-10.4-33.1-19-66.2-38.1-99.3-57.2-8.6-5-19-5-27.6 0-5.4 3.1-10.9 6.2-16.3 9.4z" style="fill:url(#d)"/>
  <path fill="url(#e)" d="M52.6 186.8v-.5c0-50.3.2-98 .2-148.3L14.9 59.8c-8.8 5.1-13.8 11.9-13.8 22v118.6c0 4.9 1.3 9.7 3.6 13.9z" style="fill:url(#e)"/>
</svg>

<?xml version="1.0" encoding="UTF-8" standalone="no"?>
<svg width="256px" height="287px" viewBox="0 0 256 287" version="1.1" xmlns="http://www.w3.org/2000/svg" xmlns:xlink="http://www.w3.org/1999/xlink" preserveAspectRatio="xMidYMid">
    <defs>
        <linearGradient x1="14.551495%" y1="49.9724928%" x2="411.68505%" y2="49.9724928%" id="linearGradient-1">
            <stop stop-color="#FFFFFF" stop-opacity="0" offset="0%"></stop>
            <stop stop-color="#FFFFFF" offset="100%"></stop>
        </linearGradient>
        <linearGradient x1="5.23920266%" y1="82.9103647%" x2="379.915947%" y2="-193.342226%" id="linearGradient-2">
            <stop stop-color="#FFFFFF" stop-opacity="0" offset="0%"></stop>
            <stop stop-color="#FFFFFF" offset="100%"></stop>
        </linearGradient>
        <linearGradient x1="62.6750831%" y1="44.0122841%" x2="-363.978405%" y2="243.704415%" id="linearGradient-3">
            <stop stop-color="#FFFFFF" stop-opacity="0" offset="0%"></stop>
            <stop stop-color="#FFFFFF" offset="100%"></stop>
        </linearGradient>
        <linearGradient x1="11.1341146%" y1="19.9042951%" x2="355.291211%" y2="478.170894%" id="linearGradient-4">
            <stop stop-color="#FFFFFF" stop-opacity="0" offset="0%"></stop>
            <stop stop-color="#FFFFFF" offset="100%"></stop>
        </linearGradient>
        <linearGradient x1="53.1154739%" y1="2.5340329%" x2="46.2655706%" y2="110.506183%" id="linearGradient-5">
            <stop stop-color="#1A3B54" stop-opacity="0" offset="0%"></stop>
            <stop stop-color="#1A3B54" offset="100%"></stop>
        </linearGradient>
    </defs>
	<g>
		<path d="M142.4,3.9 C175.5,23 208.6,42.1 241.7,61.2 C251,66.6 256,75.5 256,86.9 L256,200.9 C256,211.7 251.1,220.1 241.9,225.5 C208.9,244.6 175.8,263.6 142.8,282.7 C133.2,288.3 122.8,288.2 113.1,282.6 C80.2,263.6 47.2,244.6 14.3,225.5 C6.4,221 0,211.9 0,200.4 L0,81.8 C0,71.4 4.9,66.1 14.1,60.8 L53.7,38 L53.7,186.3 L128,229.2 L202.3,186.3 L202.3,100.5 L128,57.6 L96.8,75.6 L96.8,13.6 C102.4,10.4 108,7.1 113.7,3.9 C122.4,-1.2 133.2,-1.4 142.4,3.9 L142.4,3.9 Z" fill="#2A5D84"></path>
		<path d="M159.2,125.2 L159.2,143.2 L159.2,161.2 L143.6,170.2 L128,179.3 L112.4,170.2 L96.8,161.2 L96.8,143.2 L96.8,125.2 L112.4,116.2 L128,107.2 L143.6,116.2 L159.2,125.2 Z" fill="#1A3B54"></path>
		<path d="M158.1,125.9 L128,108.5 L97.9,125.9 L128,143.4 L158.1,125.9 Z" fill="url(#linearGradient-1)"></path>
		<path d="M128,178 L158.1,160.6 L158.1,125.9 L128,143.2 L128,178 Z" fill="url(#linearGradient-2)"></path>
		<path d="M128,178 L97.9,160.6 L97.9,125.9 L128,143.2 L128,178 Z" fill="url(#linearGradient-3)"></path>
		<path d="M97.9,14.3 L97.9,73.7 L128,56.3 L203.4,99.8 L203.4,100.1 L251.5,72.5 C249.2,68.3 245.8,64.8 241.1,62.1 C208,43.1 174.9,24 141.8,4.9 C133.2,-0.1 122.8,-0.1 114.2,4.9 C108.8,8 103.3,11.1 97.9,14.3 L97.9,14.3 Z" fill="url(#linearGradient-4)"></path>
		<path d="M52.6,186.8 L52.6,186.3 C52.6,136 52.8,88.3 52.8,38 L14.9,59.8 C6.1,64.9 1.1,71.7 1.1,81.8 L1.1,200.4 C1.1,205.3 2.4,210.1 4.7,214.3 L52.6,186.8 L52.6,186.8 Z" fill="url(#linearGradient-5)"></path>
	</g>
</svg>
